packages/match-logos/mono/svg/inboxhealth.svg

<svg fill="none" height="36" viewBox="0 0 213 36" width="213" xmlns="http://www.w3.org/2000/svg"><path clip-rule="evenodd" d="m37 5.55556c.7045.00864 1.3778.29237 1.876.79061.4983.49823.782 1.1715.7907 1.87605 0 .70725-.281 1.38553-.7811 1.88558-.5001.5001-1.1784.7811-1.8856.7811-.7073 0-1.3855-.281-1.8856-.7811-.5001-.50005-.7811-1.17833-.7811-1.88558.0087-.70455.2924-1.37782.7906-1.87605.4983-.49824 1.1715-.78197 1.8761-.79061zm-14.1111 7.22224v2h-12.3334v-2zm0 4.3333v2h-12.3334v-2zm119.2221-2.5555c-1.496.0492-2.914.6806-3.952 1.7598s-1.613 2.5208-1.603 4.0179h11.111c-.111-2.5555-1.778-5.7777-5.556-5.7777zm-124.8888 6.6666v2h-6.6667v-2zm71.3334-4.7778c-2.7778 0-4.3334 2.3334-4.3334 5 0 2.6667 1.5556 5.0001 4.3334 5.0001 2.7777 0 4.3333-2.3334 4.3333-5.0001 0-2.6666-1.5556-5-4.3333-5zm-19.6667 0c-.9466.0558-1.8436.4424-2.5341 1.0923s-1.1307 1.5218-1.2437 2.4633v3.2222c0 2.1111 1.8889 3.2223 3.7778 3.2223 2.5555 0 4.3333-2 4.3333-5.0001 0-3-1.7778-5-4.3333-5zm-45.5556-6.1111h-13.2222c-.26306-.0014-.52379.0493-.76711.1493s-.46438.2472-.65039.4332-.33328.4071-.43326.6504c-.09999.2433-.15072.5041-.14924.7671v11.7778c.00852.2747.0745.5445.19369.7921s.28895.4675.49832.6454c.20937.178.45372.3101.71728.3878.26356.0778.54051.0994.81291.0636h1.5556c.2836.0135.5605.0904.8105.225.2499.1346.4666.3235.6339.5528.4168.5111.9421.9231 1.5379 1.206s1.247.4297 1.9066.4297c.6595 0 1.3108-.1468 1.9065-.4297.5958-.2829 1.1211-.6949 1.5379-1.206.1674-.2293.384-.4182.634-.5528.2499-.1346.5269-.2115.8105-.225h1.7777c.2631.0015.5238-.0492.7671-.1492.2434-.1.4644-.2473.6504-.4333s.3333-.4071.4333-.6504.1507-.504.1492-.7671v-11.7778c-.0451-.5245-.2887-1.012-.681-1.363s-.9038-.5391-1.4301-.5259zm135.5557 10.6667c-2.445 0-4.222 1.5556-4.222 3.7778s1.666 3.7778 4.222 3.7778c.89.0483 1.779-.1183 2.591-.4857s1.524-.925 2.076-1.6254v-3.2223c-.54-.7208-1.247-1.2997-2.06-1.6868-.813-.3872-1.707-.5709-2.607-.5354zm-135.1112-13.33333c1.0849.01718 2.1207.45583 2.888 1.22312.7672.76729 1.2059 1.80301 1.2231 2.88801v14.1111c-.0172 1.085-.4559 2.1207-1.2231 2.888-.7673.7673-1.8031 1.2059-2.888 1.2231h-14.11115c-1.08497-.0172-2.1207-.4558-2.88799-1.2231s-1.20594-1.803-1.22312-2.888v-14.1111c.01718-1.085.45583-2.12072 1.22312-2.88801s1.80302-1.20594 2.88799-1.22312zm15.4444 5.11113v17.2222h-4.4444v-17.2222zm63.6668 0 3.555 5.3333 3.445-5.3333h5l-5.667 8.3333 6.111 8.8889h-5l-3.889-5.7778-3.888 5.7778h-5.0004l6.0004-8.8889-5.6671-8.3333zm85.778-6.55558v9.55558h.111c.53-.9887 1.314-1.8185 2.27-2.4043.957-.5858 2.053-.9065 3.174-.9291.786-.0487 1.574.0702 2.31.3489.737.2787 1.406.7108 1.963 1.2677.556.5568.989 1.2258 1.267 1.9623.279.7366.398 1.524.349 2.31v11.6667h-2.555v-10.8889c0-3-1.556-4.3333-3.778-4.3333-.668-.0048-1.329.125-1.945.3816s-1.174.6347-1.641 1.1118c-.467.477-.832 1.0433-1.075 1.6648-.243.6216-.359 1.2858-.339 1.9529v10.1111h-2.667v-23.77778zm-68.667 0v9.55558h.111c.53-.9887 1.314-1.8185 2.271-2.4043s2.052-.9065 3.174-.9291c.786-.0487 1.573.0702 2.31.3489.736.2787 1.405.7108 1.962 1.2677.557.5568.989 1.2258 1.268 1.9623.278.7366.397 1.524.348 2.31v11.6667h-2.666v-10.8889c0-3-1.556-4.3333-3.778-4.3333-.667-.0048-1.329.125-1.945.3816s-1.174.6347-1.641 1.1118c-.466.477-.832 1.0433-1.075 1.6648-.243.6216-.358 1.2858-.339 1.9529v10.1111h-2.667v-23.77778zm52 0v23.77778h-2.667v-23.77778zm-120 6.11108c1.5416.032 3.0094.6661 4.0893 1.7668 1.0798 1.1006 1.6859 2.5802 1.6885 4.1221v11.7778h-4.4445v-10.1111c0-.9135-.3629-1.7896-1.0088-2.4356-.646-.646-1.5221-1.0089-2.4356-1.0089s-1.7896.3629-2.4356 1.0089-1.0089 1.5221-1.0089 2.4356v10.1111h-4.4444v-17.2222h4.4444v3c.4939-1.0498 1.2816-1.9339 2.2676-2.5452s2.1281-.9237 3.288-.8993zm153.111 14.7778.778 2.3334.778-2.3334h.666v2.8889h-.444v-2.4444l-.889 2.4444h-.444l-.889-2.4444v2.4444h-.445v-2.8889zm-2.222 0c.271.0218.536.0974.778.2222l-.111.3334c-.21-.0905-.439-.1287-.667-.1111-.06-.0073-.122-.0011-.179.0181-.058.0192-.111.051-.154.093-.112.1111-.112.1111-.112.2222v.2222l.112.1111c.111 0 .222.1111.444.2223.222.1111.333.1111.444.2222.112.1111.223.1111.223.2222s.111.2222.111.3333c-.004.2061-.083.4037-.222.5556-.237.139-.504.2155-.778.2222-.265.0264-.532-.0118-.778-.1111v-.4444c.111.1111.222.1111.444.1111h.445c.222 0 .333 0 .444-.1111.111-.1112.111-.1112.111-.3334s0-.2222-.111-.2222-.222-.1111-.555-.2222c-.199-.0859-.386-.198-.556-.3334-.088-.1303-.127-.2878-.111-.4444.004-.2061.083-.4037.222-.5556 0-.1111.223-.2222.556-.2222zm-60.778-14.7778c5.111 0 8.111 4.1111 8.111 9.2223v.6666h-13.666c.017 1.6052.67 3.1379 1.816 4.2625 1.145 1.1246 2.689 1.7494 4.295 1.7375.975.0008 1.94-.1956 2.838-.5775.897-.3819 1.708-.9413 2.384-1.6447l1.222 1.7778c-.895.8735-1.956 1.5594-3.12 2.0173-1.164.458-2.407.6787-3.658.6494-5 0-8.666-3.6667-8.666-9.1112.111-4.8889 3.555-9 8.444-9zm17.556 0c3.555 0 6.555 1.6667 6.555 5.7778v11.8889h-2.666v-2c-.701.7776-1.558 1.3976-2.516 1.819-.957.4214-1.994.6346-3.04.6255-.763.0315-1.525-.0919-2.239-.3627-.714-.2707-1.366-.6833-1.916-1.2129-.55-.5295-.987-1.165-1.285-1.8681s-.451-1.4593-.449-2.223c0-3.8889 3-5.6667 5.889-5.6667 1.042-.0509 2.081.1323 3.043.5361.961.4038 1.82 1.0179 2.513 1.7972v-3.1111c0-2.3333-1.778-3.6666-4.334-3.6666-.996.0022-1.979.2222-2.881.6444-.902.4223-1.701 1.0366-2.341 1.8l-1.222-1.8889c.886-.931 1.956-1.6684 3.142-2.1656 1.185-.4971 2.461-.7434 3.747-.7233zm-71.1114 0c1.1936-.0435 2.3833.1595 3.495.5963 1.1116.4369 2.1213 1.0983 2.9658 1.9429.8446.8445 1.506 1.8542 1.9428 2.9658.4369 1.1117.6399 2.3014.5964 3.495.0542 1.2015-.1406 2.4012-.5722 3.5238s-1.0907 2.1438-1.9359 2.9994c-.8452.8557-1.8582 1.5273-2.9754 1.9726-1.1173.4454-2.3145.6549-3.5165.6154-5.5556 0-8.8889-4.1112-8.8889-9.1112-.046-1.1848.1515-2.3664.5805-3.4718s1.0802-2.111 1.9134-2.9546 1.8306-1.5073 2.9306-1.9499c1.1-.4427 2.2791-.655 3.4644-.6237zm-23.5556-6.11108v9.55558h.1111c.4445-1.0174 1.1743-1.8842 2.1011-2.4955s2.0109-.9409 3.1211-.949c4 0 7.4445 3.8889 7.4445 9.1111 0 5.7778-3.8889 9.0001-7.4445 9.0001-1.0905-.0316-2.152-.3583-3.0716-.9452-.9196-.587-1.6628-1.4123-2.1506-2.3882h-.1111v2.8889h-4.4445v-23.77778zm114.667 1.88889v4.66669h3.444v2.3333h-3.444v11.1111c0 1.3334.777 1.8889 1.666 1.8889.666-.0419 1.296-.3173 1.778-.7778l.778 2c-.864.7429-1.972 1.1388-3.111 1.1112-1.889 0-3.778-1.3334-3.778-4.3334v-11h-2.778v-2.3333h2.778v-4.66669z" fill="#1f304c" fill-rule="evenodd"/></svg>

<svg width="213" height="36" viewBox="0 0 213 36" fill="none" xmlns="http://www.w3.org/2000/svg">
<path fill-rule="evenodd" clip-rule="evenodd" d="M37 5.55556C37.7045 5.5642 38.3778 5.84793 38.876 6.34617C39.3743 6.8444 39.658 7.51767 39.6667 8.22222C39.6667 8.92947 39.3857 9.60775 38.8856 10.1078C38.3855 10.6079 37.7072 10.8889 37 10.8889C36.2927 10.8889 35.6145 10.6079 35.1144 10.1078C34.6143 9.60775 34.3333 8.92947 34.3333 8.22222C34.342 7.51767 34.6257 6.8444 35.1239 6.34617C35.6222 5.84793 36.2954 5.5642 37 5.55556ZM22.8889 12.7778V14.7778H10.5555V12.7778H22.8889ZM22.8889 17.1111V19.1111H10.5555V17.1111H22.8889ZM142.111 14.5556C140.615 14.6048 139.197 15.2362 138.159 16.3154C137.121 17.3946 136.546 18.8362 136.556 20.3333H147.667C147.556 17.7778 145.889 14.5556 142.111 14.5556ZM17.2222 21.2222V23.2222H10.5555V21.2222H17.2222ZM88.5556 16.4444C85.7778 16.4444 84.2222 18.7778 84.2222 21.4444C84.2222 24.1111 85.7778 26.4445 88.5556 26.4445C91.3333 26.4445 92.8889 24.1111 92.8889 21.4444C92.8889 18.7778 91.3333 16.4444 88.5556 16.4444ZM68.8889 16.4444C67.9423 16.5002 67.0453 16.8868 66.3548 17.5367C65.6643 18.1866 65.2241 19.0585 65.1111 20V23.2222C65.1111 25.3333 67 26.4445 68.8889 26.4445C71.4444 26.4445 73.2222 24.4445 73.2222 21.4444C73.2222 18.4444 71.4444 16.4444 68.8889 16.4444ZM23.3333 10.3333H10.1111C9.84804 10.3319 9.58731 10.3826 9.34399 10.4826C9.10067 10.5826 8.87961 10.7298 8.6936 10.9158C8.50759 11.1018 8.36032 11.3229 8.26034 11.5662C8.16035 11.8095 8.10962 12.0703 8.1111 12.3333V24.1111C8.11962 24.3858 8.1856 24.6556 8.30479 24.9032C8.42398 25.1508 8.59374 25.3707 8.80311 25.5486C9.01248 25.7266 9.25683 25.8587 9.52039 25.9364C9.78395 26.0142 10.0609 26.0358 10.3333 26H11.8889C12.1725 26.0135 12.4494 26.0904 12.6994 26.225C12.9493 26.3596 13.166 26.5485 13.3333 26.7778C13.7501 27.2889 14.2754 27.7009 14.8712 27.9838C15.467 28.2667 16.1182 28.4135 16.7778 28.4135C17.4373 28.4135 18.0886 28.2667 18.6843 27.9838C19.2801 27.7009 19.8054 27.2889 20.2222 26.7778C20.3896 26.5485 20.6062 26.3596 20.8562 26.225C21.1061 26.0904 21.3831 26.0135 21.6667 26H23.4444C23.7075 26.0015 23.9682 25.9508 24.2115 25.8508C24.4549 25.7508 24.6759 25.6035 24.8619 25.4175C25.0479 25.2315 25.1952 25.0104 25.2952 24.7671C25.3952 24.5238 25.4459 24.2631 25.4444 24V12.2222C25.3993 11.6977 25.1557 11.2102 24.7634 10.8592C24.3711 10.5082 23.8596 10.3201 23.3333 10.3333ZM158.889 21C156.444 21 154.667 22.5556 154.667 24.7778C154.667 27 156.333 28.5556 158.889 28.5556C159.779 28.6039 160.668 28.4373 161.48 28.0699C162.292 27.7025 163.004 27.1449 163.556 26.4445V23.2222C163.016 22.5014 162.309 21.9225 161.496 21.5354C160.683 21.1482 159.789 20.9645 158.889 21ZM23.7778 7.66667C24.8627 7.68385 25.8985 8.1225 26.6658 8.88979C27.433 9.65708 27.8717 10.6928 27.8889 11.7778V25.8889C27.8717 26.9739 27.433 28.0096 26.6658 28.7769C25.8985 29.5442 24.8627 29.9828 23.7778 30H9.66665C8.58168 29.9828 7.54595 29.5442 6.77866 28.7769C6.01137 28.0096 5.57272 26.9739 5.55554 25.8889V11.7778C5.57272 10.6928 6.01137 9.65708 6.77866 8.88979C7.54595 8.1225 8.58168 7.68385 9.66665 7.66667H23.7778ZM39.2222 12.7778V30H34.7778V12.7778H39.2222ZM102.889 12.7778L106.444 18.1111L109.889 12.7778H114.889L109.222 21.1111L115.333 30H110.333L106.444 24.2222L102.556 30H97.5556L103.556 21.1111L97.8889 12.7778H102.889ZM188.667 6.22222V15.7778H188.778C189.308 14.7891 190.092 13.9593 191.048 13.3735C192.005 12.7877 193.101 12.467 194.222 12.4444C195.008 12.3957 195.796 12.5146 196.532 12.7933C197.269 13.072 197.938 13.5041 198.495 14.061C199.051 14.6178 199.484 15.2868 199.762 16.0233C200.041 16.7599 200.16 17.5473 200.111 18.3333V30H197.556V19.1111C197.556 16.1111 196 14.7778 193.778 14.7778C193.11 14.773 192.449 14.9028 191.833 15.1594C191.217 15.416 190.659 15.7941 190.192 16.2712C189.725 16.7482 189.36 17.3145 189.117 17.936C188.874 18.5576 188.758 19.2218 188.778 19.8889V30H186.111V6.22222H188.667ZM120 6.22222V15.7778H120.111C120.641 14.7891 121.425 13.9593 122.382 13.3735C123.339 12.7877 124.434 12.467 125.556 12.4444C126.342 12.3957 127.129 12.5146 127.866 12.7933C128.602 13.072 129.271 13.5041 129.828 14.061C130.385 14.6178 130.817 15.2868 131.096 16.0233C131.374 16.7599 131.493 17.5473 131.444 18.3333V30H128.778V19.1111C128.778 16.1111 127.222 14.7778 125 14.7778C124.333 14.773 123.671 14.9028 123.055 15.1594C122.439 15.416 121.881 15.7941 121.414 16.2712C120.948 16.7482 120.582 17.3145 120.339 17.936C120.096 18.5576 119.981 19.2218 120 19.8889V30H117.333V6.22222H120ZM172 6.22222V30H169.333V6.22222H172ZM52 12.3333C53.5416 12.3653 55.0094 12.9994 56.0893 14.1001C57.1691 15.2007 57.7752 16.6803 57.7778 18.2222V30H53.3333V19.8889C53.3333 18.9754 52.9704 18.0993 52.3245 17.4533C51.6785 16.8073 50.8024 16.4444 49.8889 16.4444C48.9754 16.4444 48.0993 16.8073 47.4533 17.4533C46.8073 18.0993 46.4444 18.9754 46.4444 19.8889V30H42V12.7778H46.4444V15.7778C46.9383 14.728 47.726 13.8439 48.712 13.2326C49.698 12.6213 50.8401 12.3089 52 12.3333ZM205.111 27.1111L205.889 29.4445L206.667 27.1111H207.333V30H206.889V27.5556L206 30H205.556L204.667 27.5556V30H204.222V27.1111H205.111ZM202.889 27.1111C203.16 27.1329 203.425 27.2085 203.667 27.3333L203.556 27.6667C203.346 27.5762 203.117 27.538 202.889 27.5556C202.829 27.5483 202.767 27.5545 202.71 27.5737C202.652 27.5929 202.599 27.6247 202.556 27.6667C202.444 27.7778 202.444 27.7778 202.444 27.8889V28.1111L202.556 28.2222C202.667 28.2222 202.778 28.3333 203 28.4445C203.222 28.5556 203.333 28.5556 203.444 28.6667C203.556 28.7778 203.667 28.7778 203.667 28.8889C203.667 29 203.778 29.1111 203.778 29.2222C203.774 29.4283 203.695 29.6259 203.556 29.7778C203.319 29.9168 203.052 29.9933 202.778 30C202.513 30.0264 202.246 29.9882 202 29.8889V29.4445C202.111 29.5556 202.222 29.5556 202.444 29.5556H202.889C203.111 29.5556 203.222 29.5556 203.333 29.4445C203.444 29.3333 203.444 29.3333 203.444 29.1111C203.444 28.8889 203.444 28.8889 203.333 28.8889C203.222 28.8889 203.111 28.7778 202.778 28.6667C202.579 28.5808 202.392 28.4687 202.222 28.3333C202.134 28.203 202.095 28.0455 202.111 27.8889C202.115 27.6828 202.194 27.4852 202.333 27.3333C202.333 27.2222 202.556 27.1111 202.889 27.1111ZM142.111 12.3333C147.222 12.3333 150.222 16.4444 150.222 21.5556V22.2222H136.556C136.573 23.8274 137.226 25.3601 138.372 26.4847C139.517 27.6093 141.061 28.2341 142.667 28.2222C143.642 28.223 144.607 28.0266 145.505 27.6447C146.402 27.2628 147.213 26.7034 147.889 26L149.111 27.7778C148.216 28.6513 147.155 29.3372 145.991 29.7951C144.827 30.2531 143.584 30.4738 142.333 30.4445C137.333 30.4445 133.667 26.7778 133.667 21.3333C133.778 16.4444 137.222 12.3333 142.111 12.3333ZM159.667 12.3333C163.222 12.3333 166.222 14 166.222 18.1111V30H163.556V28C162.855 28.7776 161.998 29.3976 161.04 29.819C160.083 30.2404 159.046 30.4536 158 30.4445C157.237 30.476 156.475 30.3526 155.761 30.0818C155.047 29.8111 154.395 29.3985 153.845 28.8689C153.295 28.3394 152.858 27.7039 152.56 27.0008C152.262 26.2977 152.109 25.5415 152.111 24.7778C152.111 20.8889 155.111 19.1111 158 19.1111C159.042 19.0602 160.081 19.2434 161.043 19.6472C162.004 20.051 162.863 20.6651 163.556 21.4444V18.3333C163.556 16 161.778 14.6667 159.222 14.6667C158.226 14.6689 157.243 14.8889 156.341 15.3111C155.439 15.7334 154.64 16.3477 154 17.1111L152.778 15.2222C153.664 14.2912 154.734 13.5538 155.92 13.0566C157.105 12.5595 158.381 12.3132 159.667 12.3333ZM88.5556 12.3333C89.7492 12.2898 90.9389 12.4928 92.0506 12.9296C93.1622 13.3665 94.1719 14.0279 95.0164 14.8725C95.861 15.717 96.5224 16.7267 96.9592 17.8383C97.3961 18.95 97.5991 20.1397 97.5556 21.3333C97.6098 22.5348 97.415 23.7345 96.9834 24.8571C96.5518 25.9797 95.8927 27.0009 95.0475 27.8565C94.2023 28.7122 93.1893 29.3838 92.0721 29.8291C90.9548 30.2745 89.7576 30.484 88.5556 30.4445C83 30.4445 79.6667 26.3333 79.6667 21.3333C79.6207 20.1485 79.8182 18.9669 80.2472 17.8615C80.6762 16.7561 81.3274 15.7505 82.1606 14.9069C82.9938 14.0633 83.9912 13.3996 85.0912 12.957C86.1912 12.5143 87.3703 12.302 88.5556 12.3333ZM65 6.22222V15.7778H65.1111C65.5556 14.7604 66.2854 13.8936 67.2122 13.2823C68.139 12.671 69.2231 12.3414 70.3333 12.3333C74.3333 12.3333 77.7778 16.2222 77.7778 21.4444C77.7778 27.2222 73.8889 30.4445 70.3333 30.4445C69.2428 30.4129 68.1813 30.0862 67.2617 29.4993C66.3421 28.9123 65.5989 28.087 65.1111 27.1111H65V30H60.5555V6.22222H65ZM179.667 8.11111V12.7778H183.111V15.1111H179.667V26.2222C179.667 27.5556 180.444 28.1111 181.333 28.1111C181.999 28.0692 182.629 27.7938 183.111 27.3333L183.889 29.3333C183.025 30.0762 181.917 30.4721 180.778 30.4445C178.889 30.4445 177 29.1111 177 26.1111V15.1111H174.222V12.7778H177V8.11111H179.667Z" fill="#1F304C"/>
</svg>
